; generated by PrusaSlicer 2.5.0+linux-x64-GTK3 on 2023-06-01 at 12:26:19 UTC

; 

; external perimeters extrusion width = 0.45mm
; perimeters extrusion width = 0.45mm
; infill extrusion width = 0.45mm
; solid infill extrusion width = 0.45mm
; top infill extrusion width = 0.40mm
; support material extrusion width = 0.35mm
; first layer extrusion width = 0.42mm

M107
M190 S60 ; set bed temperature and wait for it to be reached
M104 S210 ; set temperature
;TYPE:Custom
G28 ; home all axes
G1 Z5 F5000 ; lift nozzle
M109 S210 ; set temperature and wait for it to be reached
G21 ; set units to millimeters
G90 ; use absolute coordinates
M82 ; use absolute distances for extrusion
G92 E0
; Filament gcode
M107
;LAYER_CHANGE
;Z:0.35
;HEIGHT:0.35
G1 Z.35 F7800
G1 E-2 F2400
G92 E0
G1 X47.665 Y73.632 F7800
G1 E2 F2400
;TYPE:Skirt/Brim
;WIDTH:0.42
G1 F1800
G1 X50.73 Y72.842 E2.15883
G1 X153.859 Y72.842 E7.33451
G1 X156.068 Y73.239 E7.44713
G1 X158.001 Y74.38 E7.55975
G1 X159.415 Y76.122 E7.67237
G1 X160.204 Y79.187 E7.8312
G1 X160.204 Y142.317 E10.99943
G1 X159.808 Y144.526 E11.11206
G1 X158.667 Y146.458 E11.22468
G1 X156.924 Y147.873 E11.3373
G1 X153.859 Y148.662 E11.49613
G1 X50.73 Y148.662 E16.6718
G1 X48.521 Y148.265 E16.78442
G1 X46.588 Y147.124 E16.89705
G1 X45.174 Y145.382 E17.00967
G1 X44.385 Y142.317 E17.1685
G1 X44.385 Y79.187 E20.33673
G1 X44.781 Y76.978 E20.44935
G1 X45.922 Y75.046 E20.56197
G1 X47.618 Y73.669 E20.67158
G1 E18.67158 F2400
G92 E0
G1 X152.96 Y141.417 F7800
G1 E2 F2400
;TYPE:Perimeter
;WIDTH:0.42
G1 F1800
G1 X51.629 Y141.417 E7.08535
G1 X51.629 Y80.087 E10.16327
G1 X152.96 Y80.087 E15.24862
G1 X152.96 Y141.357 E18.32352
G1 X153.305 Y141.762 F7800
G1 F1800
G1 X51.284 Y141.762 E23.44349
G1 X51.284 Y79.742 E26.55603
G1 X153.305 Y79.742 E31.676
G1 X153.305 Y141.702 E34.78552
G1 X153.649 Y142.107 F7800
;TYPE:External perimeter
G1 F1800
G1 X50.94 Y142.107 E39.9401
G1 X50.94 Y79.397 E43.08725
G1 X153.649 Y79.397 E48.24184
G1 X153.649 Y142.047 E51.38598
G1 X153.256 Y142.034 F7800
G1 E49.38598 F2400
G92 E0
G1 X79.444 Y117.497 F7800
G1 E2 F2400
;TYPE:Perimeter
G1 F1800
G1 X78.833 Y117.485 E2.03065
G1 X78.165 Y117.406 E2.0644
G1 X77.508 Y117.26 E2.09816
G1 X76.869 Y117.05 E2.13194
G1 X76.254 Y116.777 E2.1657
G1 X75.669 Y116.445 E2.19946
G1 X75.12 Y116.055 E2.23324
G1 X74.613 Y115.613 E2.267
G1 X74.152 Y115.123 E2.30076
G1 X73.743 Y114.589 E2.33453
G1 X73.388 Y114.017 E2.36829
G1 X73.092 Y113.413 E2.40207
G1 X72.858 Y112.782 E2.43582
G1 X72.688 Y112.132 E2.46959
G1 X72.584 Y111.467 E2.50336
G1 X72.552 Y110.48 E2.55293
G1 X72.615 Y109.789 E2.58773
G1 X72.744 Y109.128 E2.62151
G1 X72.938 Y108.484 E2.65527
G1 X73.195 Y107.863 E2.68903
G1 X73.513 Y107.27 E2.7228
G1 X73.889 Y106.711 E2.75657
G1 X74.318 Y106.193 E2.79033
G1 X74.797 Y105.72 E2.82409
G1 X75.32 Y105.298 E2.85786
G1 X75.883 Y104.929 E2.89163
G1 X76.48 Y104.618 E2.92539
G1 X77.104 Y104.368 E2.95916
G1 X77.751 Y104.182 E2.99292
G1 X78.413 Y104.061 E3.02669
G1 X79.083 Y104.006 E3.06046
G1 X79.756 Y104.019 E3.09423
G1 X80.424 Y104.098 E3.12798
G1 X81.081 Y104.244 E3.16174
G1 X81.72 Y104.454 E3.19552
G1 X82.335 Y104.727 E3.22928
G1 X82.92 Y105.06 E3.26304
G1 X83.469 Y105.449 E3.29682
G1 X83.976 Y105.891 E3.33058
G1 X84.437 Y106.381 E3.36434
G1 X84.846 Y106.915 E3.39811
G1 X85.201 Y107.487 E3.43187
G1 X85.497 Y108.091 E3.46565
G1 X85.731 Y108.722 E3.4994
G1 X85.901 Y109.373 E3.53317
G1 X86.005 Y110.037 E3.56694
G1 X86.037 Y111.025 E3.61651
G1 X85.974 Y111.715 E3.65131
G1 X85.845 Y112.376 E3.68509
G1 X85.651 Y113.02 E3.71885
G1 X85.394 Y113.641 E3.75261
G1 X85.076 Y114.234 E3.78638
G1 X84.7 Y114.793 E3.82015
G1 X84.271 Y115.311 E3.85391
G1 X83.792 Y115.784 E3.88767
G1 X83.269 Y116.207 E3.92144
G1 X82.706 Y116.575 E3.95521
G1 X82.109 Y116.886 E3.98897
G1 X81.485 Y117.136 E4.02274
G1 X80.838 Y117.322 E4.0565
G1 X80.176 Y117.443 E4.09027
G1 X79.503 Y117.498 E4.12415
G1 X79.448 Y117.153 F7800
G1 F1800
G1 X78.842 Y117.14 E4.15459
G1 X78.208 Y117.064 E4.18663
G1 X77.585 Y116.924 E4.21867
G1 X76.979 Y116.723 E4.25071
G1 X76.396 Y116.463 E4.28275
G1 X75.842 Y116.146 E4.31479
G1 X75.322 Y115.775 E4.34684
G1 X74.841 Y115.355 E4.37888
G1 X74.405 Y114.888 E4.41092
G1 X74.018 Y114.381 E4.44297
G1 X73.683 Y113.838 E4.475
G1 X73.403 Y113.263 E4.50705
G1 X73.182 Y112.664 E4.53909
G1 X73.022 Y112.046 E4.57113
G1 X72.925 Y111.415 E4.60317
G1 X72.897 Y110.471 E4.65059
G1 X72.958 Y109.823 E4.68324
G1 X73.082 Y109.197 E4.71529
G1 X73.268 Y108.586 E4.74733
G1 X73.513 Y107.997 E4.77937
G1 X73.816 Y107.435 E4.81141
G1 X74.174 Y106.906 E4.84346
G1 X74.582 Y106.415 E4.87549
G1 X75.038 Y105.967 E4.90754
G1 X75.535 Y105.567 E4.93958
G1 X76.07 Y105.219 E4.97162
G1 X76.637 Y104.925 E5.00366
G1 X77.23 Y104.689 E5.03571
G1 X77.844 Y104.514 E5.06774
G1 X78.473 Y104.401 E5.09979
G1 X79.109 Y104.35 E5.13183
G1 X79.748 Y104.364 E5.16388
G1 X80.381 Y104.441 E5.19591
G1 X81.004 Y104.58 E5.22795
G1 X81.61 Y104.781 E5.26
G1 X82.193 Y105.041 E5.29204
G1 X82.747 Y105.358 E5.32407
G1 X83.267 Y105.729 E5.35612
G1 X83.748 Y106.149 E5.38816
G1 X84.184 Y106.616 E5.4202
G1 X84.572 Y107.123 E5.45225
G1 X84.907 Y107.667 E5.48429
G1 X85.186 Y108.241 E5.51633
G1 X85.407 Y108.84 E5.54837
G1 X85.567 Y109.458 E5.58041
G1 X85.664 Y110.089 E5.61245
G1 X85.692 Y111.033 E5.65987
G1 X85.631 Y111.681 E5.69253
G1 X85.507 Y112.307 E5.72457
G1 X85.321 Y112.918 E5.75661
G1 X85.076 Y113.508 E5.78865
G1 X84.773 Y114.069 E5.82069
G1 X84.415 Y114.599 E5.85274
G1 X84.007 Y115.089 E5.88478
G1 X83.552 Y115.537 E5.91682
G1 X83.054 Y115.937 E5.94886
G1 X82.519 Y116.285 E5.9809
G1 X81.952 Y116.579 E6.01295
G1 X81.359 Y116.815 E6.04499
G1 X80.745 Y116.99 E6.07703
G1 X80.116 Y117.103 E6.10907
G1 X79.508 Y117.152 E6.1397
G1 X79.454 Y116.81 F7800
;TYPE:External perimeter
G1 F1800
G1 X78.85 Y116.796 E6.17003
G1 X78.251 Y116.721 E6.20034
G1 X77.662 Y116.588 E6.23066
G1 X77.089 Y116.396 E6.26098
G1 X76.538 Y116.148 E6.2913
G1 X76.014 Y115.847 E6.32162
G1 X75.523 Y115.495 E6.35194
G1 X75.069 Y115.096 E6.38226
G1 X74.658 Y114.654 E6.41257
G1 X74.293 Y114.173 E6.44289
G1 X73.977 Y113.658 E6.47321
G1 X73.714 Y113.114 E6.50353
G1 X73.506 Y112.546 E6.53384
G1 X73.357 Y111.961 E6.56416
G1 X73.266 Y111.364 E6.59448
G1 X73.242 Y110.462 E6.63974
G1 X73.301 Y109.857 E6.67025
G1 X73.42 Y109.265 E6.70057
G1 X73.597 Y108.688 E6.73088
G1 X73.831 Y108.131 E6.7612
G1 X74.119 Y107.6 E6.79152
G1 X74.459 Y107.1 E6.82184
G1 X74.846 Y106.637 E6.85216
G1 X75.278 Y106.214 E6.88248
G1 X75.75 Y105.837 E6.9128
G1 X76.257 Y105.508 E6.94311
G1 X76.794 Y105.232 E6.97343
G1 X77.356 Y105.011 E7.00375
G1 X77.938 Y104.846 E7.03406
G1 X78.533 Y104.74 E7.06439
G1 X79.135 Y104.694 E7.09471
G1 X79.739 Y104.709 E7.12502
G1 X80.338 Y104.783 E7.15534
G1 X80.927 Y104.916 E7.18566
G1 X81.5 Y105.108 E7.21597
G1 X82.051 Y105.356 E7.24629
G1 X82.575 Y105.657 E7.27661
G1 X83.066 Y106.009 E7.30693
G1 X83.52 Y106.408 E7.33725
G1 X83.931 Y106.85 E7.36757
G1 X84.297 Y107.331 E7.39789
G1 X84.612 Y107.846 E7.4282
G1 X84.875 Y108.39 E7.45852
G1 X85.083 Y108.958 E7.48884
G1 X85.233 Y109.543 E7.51915
G1 X85.323 Y110.14 E7.54947
G1 X85.347 Y111.042 E7.59474
G1 X85.288 Y111.647 E7.62524
G1 X85.169 Y112.239 E7.65556
G1 X84.992 Y112.817 E7.68588
G1 X84.758 Y113.374 E7.7162
G1 X84.47 Y113.905 E7.74652
G1 X84.13 Y114.404 E7.77684
G1 X83.743 Y114.867 E7.80715
G1 X83.311 Y115.29 E7.83747
G1 X82.839 Y115.667 E7.86779
G1 X82.332 Y115.996 E7.89811
G1 X81.795 Y116.272 E7.92843
G1 X81.233 Y116.494 E7.95875
G1 X80.651 Y116.658 E7.98906
G1 X80.057 Y116.764 E8.01938
G1 X79.514 Y116.805 E8.04668
G1 X79.264 Y117.161 F7800
G1 E6.04668 F2400
G92 E0
G1 X139.865 Y123.203 F7800
G1 E2 F2400
;TYPE:Perimeter
G1 F1800
G1 X139.616 Y123.354 E2.0146
G1 X139.332 Y123.402 E2.02905
G1 X104.557 Y123.402 E3.77427
G1 X104.219 Y123.333 E3.79156
G1 X103.954 Y123.156 E3.80757
G1 X103.768 Y122.887 E3.82399
G1 X103.695 Y122.54 E3.8418
G1 X103.695 Y98.965 E5.02494
G1 X103.768 Y98.617 E5.04275
G1 X103.954 Y98.348 E5.05917
G1 X104.219 Y98.171 E5.07518
G1 X104.557 Y98.102 E5.09247
G1 X139.332 Y98.102 E6.83769
G1 X139.681 Y98.176 E6.85561
G1 X139.921 Y98.335 E6.87004
G1 X140.117 Y98.607 E6.88687
G1 X140.194 Y98.965 E6.90521
G1 X140.194 Y122.54 E8.08835
G1 X140.117 Y122.897 E8.10669
G1 X139.916 Y123.172 E8.12379
G1 X139.657 Y122.918 F7800
G1 F1800
G1 X139.578 Y122.995 E8.12933
G1 X139.332 Y123.057 E8.14205
G1 X104.557 Y123.057 E9.88727
G1 X104.318 Y122.999 E9.89961
G1 X104.129 Y122.83 E9.91233
G1 X104.042 Y122.584 E9.92542
G1 X104.04 Y98.965 E11.1108
G1 X104.112 Y98.702 E11.12448
G1 X104.284 Y98.525 E11.13686
G1 X104.557 Y98.447 E11.15111
G1 X139.332 Y98.447 E12.89633
G1 X139.578 Y98.509 E12.90906
G1 X139.779 Y98.703 E12.92306
G1 X139.849 Y98.965 E12.93664
G1 X139.849 Y122.54 E14.11978
G1 X139.779 Y122.801 E14.13337
G1 X139.7 Y122.876 E14.13882
G1 X139.438 Y122.676 F7800
;TYPE:External perimeter
G1 F1800
G1 X139.332 Y122.712 E14.14445
G1 X104.557 Y122.712 E15.88967
G1 X104.421 Y122.645 E15.89728
G1 X104.385 Y122.54 E15.9029
G1 X104.385 Y98.965 E17.08603
G1 X104.445 Y98.833 E17.09331
G1 X104.557 Y98.792 E17.09927
G1 X139.332 Y98.792 E18.84449
G1 X139.461 Y98.85 E18.85159
G1 X139.505 Y98.965 E18.85773
G1 X139.505 Y122.54 E20.04087
G1 X139.465 Y122.622 E20.04545
G1 X139.463 Y122.785 F7800
G1 E18.04545 F2400
G92 E0
G1 X152.157 Y80.19 F7800
G1 E2 F2400
;TYPE:Solid infill
;WIDTH:0.420817
G1 F1800
G1 X152.701 Y80.734 E2.03868
G1 X152.701 Y81.223 E2.06328
G1 X151.824 Y80.346 E2.1257
G1 X151.335 Y80.346 E2.15029
G1 X152.701 Y81.712 E2.2475
G1 X152.701 Y82.201 E2.27209
G1 X150.846 Y80.346 E2.40408
G1 X150.357 Y80.346 E2.42867
G1 X152.701 Y82.69 E2.59544
G1 X152.701 Y83.179 E2.62003
G1 X149.868 Y80.346 E2.82158
G1 X149.379 Y80.346 E2.84617
G1 X152.701 Y83.668 E3.0825
G1 X152.701 Y84.156 E3.1071
G1 X148.89 Y80.346 E3.37821
G1 X148.401 Y80.346 E3.4028
G1 X152.701 Y84.645 E3.70869
G1 X152.701 Y85.134 E3.73329
G1 X147.912 Y80.346 E4.07396
G1 X147.423 Y80.346 E4.09855
G1 X152.701 Y85.623 E4.47401
G1 X152.701 Y86.112 E4.4986
G1 X146.935 Y80.346 E4.90884
G1 X146.446 Y80.346 E4.93343
G1 X152.701 Y86.601 E5.37845
G1 X152.701 Y87.09 E5.40304
G1 X145.957 Y80.346 E5.88284
G1 X145.468 Y80.346 E5.90743
G1 X152.701 Y87.579 E6.42201
G1 X152.701 Y88.068 E6.44661
G1 X144.979 Y80.346 E6.99597
G1 X144.49 Y80.346 E7.02056
G1 X152.701 Y88.557 E7.6047
G1 X152.701 Y89.045 E7.6293
G1 X144.001 Y80.346 E8.24822
G1 X143.512 Y80.346 E8.27282
G1 X152.701 Y89.534 E8.92652
G1 X152.701 Y90.023 E8.95111
G1 X143.023 Y80.346 E9.6396
G1 X142.534 Y80.346 E9.66419
G1 X152.701 Y90.512 E10.38746
G1 X152.701 Y91.001 E10.41206
G1 X142.046 Y80.346 E11.1701
G1 X141.557 Y80.346 E11.1947
G1 X152.701 Y91.49 E11.98753
G1 X152.701 Y91.979 E12.01212
G1 X141.068 Y80.346 E12.83973
G1 X140.579 Y80.346 E12.86433
G1 X152.701 Y92.468 E13.72672
G1 X152.701 Y92.957 E13.75131
G1 X140.09 Y80.346 E14.64849
G1 X139.601 Y80.346 E14.67308
G1 X152.701 Y93.446 E15.60504
G1 X152.701 Y93.934 E15.62963
G1 X139.112 Y80.346 E16.59637
G1 X138.623 Y80.346 E16.62096
G1 X152.701 Y94.423 E17.62248
G1 X152.701 Y94.912 E17.64707
G1 X138.134 Y80.346 E18.68337
G1 X137.645 Y80.346 E18.70797
G1 X152.701 Y95.401 E19.77905
G1 X152.701 Y95.89 E19.80364
G1 X137.157 Y80.346 E20.9095
G1 X136.668 Y80.346 E20.9341
G1 X152.701 Y96.379 E22.07474
G1 X152.701 Y96.868 E22.09933
G1 X136.179 Y80.346 E23.27476
G1 X135.69 Y80.346 E23.29935
G1 X152.701 Y97.357 E24.50956
G1 X152.701 Y97.846 E24.53415
G1 X135.201 Y80.346 E25.77914
G1 X134.712 Y80.346 E25.80373
G1 X152.701 Y98.335 E27.0835
G1 X152.701 Y98.824 E27.10809
G1 X134.223 Y80.346 E28.42264
G1 X133.734 Y80.346 E28.44724
G1 X152.701 Y99.312 E29.79657
G1 X152.701 Y99.801 E29.82116
G1 X133.245 Y80.346 E31.20527
G1 X132.756 Y80.346 E31.22987
G1 X152.701 Y100.29 E32.64876
G1 X152.701 Y100.779 E32.67336
G1 X132.268 Y80.346 E34.12703
G1 X131.779 Y80.346 E34.15163
G1 X152.701 Y101.268 E35.64008
G1 X152.701 Y101.757 E35.66468
G1 X131.29 Y80.346 E37.18791
G1 X130.801 Y80.346 E37.21251
G1 X152.701 Y102.246 E38.77053
G1 X152.701 Y102.735 E38.79512
G1 X130.312 Y80.346 E40.38792
G1 X129.823 Y80.346 E40.41251
G1 X152.701 Y103.224 E42.04009
G1 X152.701 Y103.713 E42.06469
G1 X129.334 Y80.346 E43.72705
G1 X128.845 Y80.346 E43.75165
G1 X152.701 Y104.201 E45.44879
G1 X152.701 Y104.69 E45.47338
G1 X128.356 Y80.346 E47.20531
G1 X127.867 Y80.346 E47.2299
G1 X152.701 Y105.179 E48.99661
G1 X152.701 Y105.668 E49.0212
G1 X127.378 Y80.346 E50.82269
G1 X126.89 Y80.346 E50.84728
G1 X152.701 Y106.157 E52.68355
G1 X152.701 Y106.646 E52.70815
G1 X126.401 Y80.346 E54.5792
G1 X125.912 Y80.346 E54.60379
G1 X152.701 Y107.135 E56.50962
G1 X152.701 Y107.624 E56.53422
G1 X125.423 Y80.346 E58.47483
G1 X124.934 Y80.346 E58.49942
G1 X152.701 Y108.113 E60.47482
G1 X152.701 Y108.602 E60.49941
G1 X124.445 Y80.346 E62.50959
G1 X123.956 Y80.346 E62.53418
G1 X152.701 Y109.09 E64.57914
G1 X152.701 Y109.579 E64.60373
G1 X123.467 Y80.346 E66.68347
G1 X122.978 Y80.346 E66.70807
G1 X152.701 Y110.068 E68.82259
G1 X152.701 Y110.557 E68.84718
G1 X122.489 Y80.346 E70.99648
G1 X122.001 Y80.346 E71.02107
G1 X139.522 Y97.867 E72.26758
G1 X139.611 Y97.878 E72.27207
G1 X139.786 Y97.939 E72.28143
G1 X139.946 Y98.026 E72.29056
G1 X140.17 Y98.219 E72.30545
G1 X140.301 Y98.4 E72.3167
G1 X140.427 Y98.722 E72.33408
G1 X140.433 Y98.778 E72.33693
G1 X152.701 Y111.046 E73.20968
G1 X152.701 Y111.535 E73.23427
G1 X140.453 Y99.287 E74.10562
G1 X140.453 Y99.776 E74.13021
G1 X152.701 Y112.024 E75.00156
G1 X152.701 Y112.513 E75.02615
G1 X140.453 Y100.265 E75.8975
G1 X140.453 Y100.754 E75.92209
G1 X152.701 Y113.002 E76.79344
G1 X152.701 Y113.491 E76.81803
G1 X140.453 Y101.243 E77.68938
G1 X140.453 Y101.731 E77.71397
G1 X152.701 Y113.979 E78.58532
G1 X152.701 Y114.468 E78.60991
G1 X140.453 Y102.22 E79.48126
G1 X140.453 Y102.709 E79.50586
G1 X152.701 Y114.957 E80.3772
G1 X152.701 Y115.446 E80.4018
G1 X140.453 Y103.198 E81.27314
G1 X140.453 Y103.687 E81.29774
G1 X152.701 Y115.935 E82.16908
G1 X152.701 Y116.424 E82.19368
G1 X140.453 Y104.176 E83.06502
G1 X140.453 Y104.665 E83.08962
G1 X152.701 Y116.913 E83.96097
G1 X152.701 Y117.402 E83.98556
G1 X140.453 Y105.154 E84.85691
G1 X140.453 Y105.643 E84.8815
G1 X152.701 Y117.891 E85.75285
G1 X152.701 Y118.38 E85.77744
G1 X140.453 Y106.132 E86.64879
G1 X140.453 Y106.62 E86.67338
G1 X152.701 Y118.869 E87.54473
G1 X152.701 Y119.357 E87.56932
G1 X140.453 Y107.109 E88.44067
G1 X140.453 Y107.598 E88.46526
G1 X152.701 Y119.846 E89.33661
G1 X152.701 Y120.335 E89.3612
G1 X140.453 Y108.087 E90.23255
G1 X140.453 Y108.576 E90.25715
G1 X152.701 Y120.824 E91.12849
G1 X152.701 Y121.313 E91.15309
G1 X140.453 Y109.065 E92.02443
G1 X140.453 Y109.554 E92.04903
G1 X152.701 Y121.802 E92.92037
G1 X152.701 Y122.291 E92.94497
G1 X140.453 Y110.043 E93.81631
G1 X140.453 Y110.532 E93.84091
G1 X152.701 Y122.78 E94.71226
G1 X152.701 Y123.269 E94.73685
G1 X140.453 Y111.021 E95.6082
G1 X140.453 Y111.509 E95.63279
G1 X152.701 Y123.758 E96.50414
G1 X152.701 Y124.246 E96.52873
G1 X140.453 Y111.998 E97.40008
G1 X140.453 Y112.487 E97.42467
G1 X152.701 Y124.735 E98.29602
G1 X152.701 Y125.224 E98.32061
G1 X140.453 Y112.976 E99.19196
G1 X140.453 Y113.465 E99.21655
G1 X152.701 Y125.713 E100.0879
G1 X152.701 Y126.202 E100.11249
G1 X140.453 Y113.954 E100.98384
G1 X140.453 Y114.443 E101.00843
G1 X152.701 Y126.691 E101.87978
G1 X152.701 Y127.18 E101.90438
G1 X140.453 Y114.932 E102.77572
G1 X140.453 Y115.421 E102.80032
G1 X152.701 Y127.669 E103.67166
G1 X152.701 Y128.158 E103.69626
G1 X140.453 Y115.91 E104.5676
G1 X140.453 Y116.398 E104.5922
G1 X152.701 Y128.647 E105.46354
G1 X152.701 Y129.135 E105.48814
G1 X140.453 Y116.887 E106.35949
G1 X140.453 Y117.376 E106.38408
G1 X152.701 Y129.624 E107.25543
G1 X152.701 Y130.113 E107.28002
G1 X140.453 Y117.865 E108.15137
G1 X140.453 Y118.354 E108.17596
G1 X152.701 Y130.602 E109.04731
G1 X152.701 Y131.091 E109.0719
G1 X140.453 Y118.843 E109.94325
G1 X140.453 Y119.332 E109.96784
G1 X152.701 Y131.58 E110.83919
G1 X152.701 Y132.069 E110.86378
G1 X140.453 Y119.821 E111.73513
G1 X140.453 Y120.31 E111.75972
