; generated by PrusaSlicer 2.5.0+linux-x64-GTK3 on 2023-06-01 at 11:10:57 UTC

; 

; external perimeters extrusion width = 0.45mm
; perimeters extrusion width = 0.45mm
; infill extrusion width = 0.45mm
; solid infill extrusion width = 0.45mm
; top infill extrusion width = 0.40mm
; support material extrusion width = 0.35mm
; first layer extrusion width = 0.42mm

M107
M190 S60 ; set bed temperature and wait for it to be reached
M104 S210 ; set temperature
;TYPE:Custom
G28 ; home all axes
G1 Z5 F5000 ; lift nozzle
M109 S210 ; set temperature and wait for it to be reached
G21 ; set units to millimeters
G90 ; use absolute coordinates
M82 ; use absolute distances for extrusion
G92 E0
; Filament gcode
M107
;LAYER_CHANGE
;Z:0.35
;HEIGHT:0.35
G1 Z.35 F7800
G1 E-2 F2400
G92 E0
G1 X52.247 Y65.645 F7800
G1 E2 F2400
;TYPE:Skirt/Brim
;WIDTH:0.42
G1 F1800
G1 X55.312 Y64.856 E2.15883
G1 X158.442 Y64.856 E7.33451
G1 X160.65 Y65.253 E7.44713
G1 X162.583 Y66.393 E7.55975
G1 X163.997 Y68.136 E7.67237
G1 X164.787 Y71.201 E7.8312
G1 X164.787 Y134.331 E10.99943
G1 X164.39 Y136.539 E11.11206
G1 X163.249 Y138.472 E11.22468
G1 X161.507 Y139.886 E11.3373
G1 X158.442 Y140.675 E11.49613
G1 X55.312 Y140.675 E16.6718
G1 X53.103 Y140.279 E16.78442
G1 X51.171 Y139.138 E16.89705
G1 X49.756 Y137.395 E17.00967
G1 X48.967 Y134.331 E17.1685
G1 X48.967 Y71.201 E20.33673
G1 X49.364 Y68.992 E20.44935
G1 X50.505 Y67.059 E20.56197
G1 X52.2 Y65.683 E20.67158
G1 E18.67158 F2400
G92 E0
G1 X157.542 Y133.431 F7800
G1 E2 F2400
;TYPE:Perimeter
;WIDTH:0.42
G1 F1800
G1 X56.212 Y133.431 E7.08535
G1 X56.212 Y72.1 E10.16327
G1 X157.542 Y72.1 E15.24862
G1 X157.542 Y133.371 E18.32352
G1 X157.887 Y133.776 F7800
G1 F1800
G1 X55.867 Y133.776 E23.44349
G1 X55.867 Y71.756 E26.55603
G1 X157.887 Y71.756 E31.676
G1 X157.887 Y133.716 E34.78552
G1 X158.232 Y134.121 F7800
;TYPE:External perimeter
G1 F1800
G1 X55.522 Y134.121 E39.9401
G1 X55.522 Y71.411 E43.08725
G1 X158.232 Y71.411 E48.24184
G1 X158.232 Y134.061 E51.38598
G1 X157.838 Y134.048 F7800
G1 E49.38598 F2400
G92 E0
G1 X84.026 Y109.51 F7800
G1 E2 F2400
;TYPE:Perimeter
G1 F1800
G1 X83.415 Y109.499 E2.03065
G1 X82.747 Y109.419 E2.0644
G1 X82.09 Y109.274 E2.09816
G1 X81.451 Y109.063 E2.13194
G1 X80.836 Y108.791 E2.1657
G1 X80.252 Y108.458 E2.19946
G1 X79.703 Y108.069 E2.23324
G1 X79.195 Y107.627 E2.267
G1 X78.735 Y107.137 E2.30076
G1 X78.325 Y106.603 E2.33453
G1 X77.97 Y106.031 E2.36829
G1 X77.675 Y105.426 E2.40207
G1 X77.441 Y104.796 E2.43582
G1 X77.27 Y104.145 E2.46959
G1 X77.166 Y103.48 E2.50336
G1 X77.135 Y102.493 E2.55293
G1 X77.197 Y101.802 E2.58773
G1 X77.326 Y101.142 E2.62151
G1 X77.52 Y100.498 E2.65527
G1 X77.778 Y99.876 E2.68903
G1 X78.096 Y99.283 E2.7228
G1 X78.471 Y98.725 E2.75657
G1 X78.9 Y98.207 E2.79033
G1 X79.379 Y97.734 E2.82409
G1 X79.902 Y97.311 E2.85786
G1 X80.465 Y96.943 E2.89163
G1 X81.062 Y96.632 E2.92539
G1 X81.687 Y96.382 E2.95916
G1 X82.333 Y96.196 E2.99292
G1 X82.995 Y96.075 E3.02669
G1 X83.666 Y96.02 E3.06046
G1 X84.338 Y96.033 E3.09423
G1 X85.006 Y96.112 E3.12798
G1 X85.663 Y96.257 E3.16174
G1 X86.302 Y96.468 E3.19552
G1 X86.917 Y96.74 E3.22928
G1 X87.502 Y97.073 E3.26304
G1 X88.051 Y97.462 E3.29682
G1 X88.558 Y97.904 E3.33058
G1 X89.019 Y98.395 E3.36434
G1 X89.429 Y98.928 E3.39811
G1 X89.783 Y99.5 E3.43187
G1 X90.079 Y100.105 E3.46565
G1 X90.313 Y100.735 E3.4994
G1 X90.483 Y101.386 E3.53317
G1 X90.588 Y102.051 E3.56694
G1 X90.619 Y103.038 E3.61651
G1 X90.557 Y103.729 E3.65131
G1 X90.427 Y104.389 E3.68509
G1 X90.233 Y105.033 E3.71885
G1 X89.976 Y105.655 E3.75261
G1 X89.658 Y106.248 E3.78638
G1 X89.282 Y106.806 E3.82015
G1 X88.853 Y107.324 E3.85391
G1 X88.375 Y107.797 E3.88767
G1 X87.851 Y108.22 E3.92144
G1 X87.288 Y108.589 E3.95521
G1 X86.692 Y108.899 E3.98897
G1 X86.067 Y109.149 E4.02274
G1 X85.42 Y109.336 E4.0565
G1 X84.759 Y109.457 E4.09027
G1 X84.086 Y109.511 E4.12415
G1 X84.03 Y109.167 F7800
G1 F1800
G1 X83.424 Y109.154 E4.15459
G1 X82.79 Y109.077 E4.18663
G1 X82.167 Y108.938 E4.21867
G1 X81.561 Y108.737 E4.25071
G1 X80.978 Y108.476 E4.28275
G1 X80.424 Y108.159 E4.31479
G1 X79.904 Y107.789 E4.34684
G1 X79.424 Y107.368 E4.37888
G1 X78.987 Y106.902 E4.41092
G1 X78.6 Y106.394 E4.44297
G1 X78.265 Y105.851 E4.475
G1 X77.985 Y105.277 E4.50705
G1 X77.765 Y104.678 E4.53909
G1 X77.605 Y104.06 E4.57113
G1 X77.507 Y103.429 E4.60317
G1 X77.479 Y102.484 E4.65059
G1 X77.54 Y101.837 E4.68324
G1 X77.664 Y101.21 E4.71529
G1 X77.85 Y100.599 E4.74733
G1 X78.096 Y100.01 E4.77937
G1 X78.399 Y99.448 E4.81141
G1 X78.756 Y98.919 E4.84346
G1 X79.165 Y98.428 E4.87549
G1 X79.62 Y97.981 E4.90754
G1 X80.117 Y97.581 E4.93958
G1 X80.652 Y97.232 E4.97162
G1 X81.219 Y96.939 E5.00366
G1 X81.813 Y96.703 E5.03571
G1 X82.427 Y96.528 E5.06774
G1 X83.055 Y96.414 E5.09979
G1 X83.691 Y96.364 E5.13183
G1 X84.33 Y96.377 E5.16388
G1 X84.963 Y96.454 E5.19591
G1 X85.586 Y96.594 E5.22795
G1 X86.193 Y96.795 E5.26
G1 X86.776 Y97.055 E5.29204
G1 X87.33 Y97.372 E5.32407
G1 X87.85 Y97.742 E5.35612
G1 X88.33 Y98.163 E5.38816
G1 X88.766 Y98.629 E5.4202
G1 X89.154 Y99.137 E5.45225
G1 X89.489 Y99.68 E5.48429
G1 X89.768 Y100.254 E5.51633
G1 X89.989 Y100.853 E5.54837
G1 X90.149 Y101.471 E5.58041
G1 X90.247 Y102.102 E5.61245
G1 X90.274 Y103.047 E5.65987
G1 X90.213 Y103.695 E5.69253
G1 X90.089 Y104.321 E5.72457
G1 X89.904 Y104.932 E5.75661
G1 X89.658 Y105.521 E5.78865
G1 X89.355 Y106.083 E5.82069
G1 X88.997 Y106.612 E5.85274
G1 X88.589 Y107.103 E5.88478
G1 X88.134 Y107.55 E5.91682
G1 X87.636 Y107.95 E5.94886
G1 X87.101 Y108.299 E5.9809
G1 X86.534 Y108.592 E6.01295
G1 X85.941 Y108.828 E6.04499
G1 X85.327 Y109.004 E6.07703
G1 X84.699 Y109.117 E6.10907
G1 X84.09 Y109.165 E6.1397
G1 X84.037 Y108.823 F7800
;TYPE:External perimeter
G1 F1800
G1 X83.432 Y108.809 E6.17003
G1 X82.833 Y108.735 E6.20034
G1 X82.244 Y108.601 E6.23066
G1 X81.671 Y108.41 E6.26098
G1 X81.12 Y108.162 E6.2913
G1 X80.596 Y107.861 E6.32162
G1 X80.105 Y107.509 E6.35194
G1 X79.652 Y107.11 E6.38226
G1 X79.24 Y106.667 E6.41257
G1 X78.875 Y106.186 E6.44289
G1 X78.559 Y105.671 E6.47321
G1 X78.296 Y105.127 E6.50353
G1 X78.089 Y104.56 E6.53384
G1 X77.939 Y103.975 E6.56416
G1 X77.848 Y103.377 E6.59448
G1 X77.824 Y102.476 E6.63974
G1 X77.883 Y101.871 E6.67025
G1 X78.002 Y101.279 E6.70057
G1 X78.18 Y100.701 E6.73088
G1 X78.413 Y100.144 E6.7612
G1 X78.701 Y99.613 E6.79152
G1 X79.041 Y99.113 E6.82184
G1 X79.429 Y98.65 E6.85216
G1 X79.861 Y98.228 E6.88248
G1 X80.332 Y97.85 E6.9128
G1 X80.839 Y97.522 E6.94311
G1 X81.377 Y97.246 E6.97343
G1 X81.939 Y97.024 E7.00375
G1 X82.52 Y96.86 E7.03406
G1 X83.115 Y96.754 E7.06439
G1 X83.717 Y96.708 E7.09471
G1 X84.321 Y96.722 E7.12502
G1 X84.921 Y96.796 E7.15534
G1 X85.51 Y96.93 E7.18566
G1 X86.083 Y97.121 E7.21597
G1 X86.634 Y97.369 E7.24629
G1 X87.157 Y97.67 E7.27661
G1 X87.648 Y98.022 E7.30693
G1 X88.102 Y98.422 E7.33725
G1 X88.513 Y98.864 E7.36757
G1 X88.879 Y99.345 E7.39789
G1 X89.195 Y99.86 E7.4282
G1 X89.457 Y100.404 E7.45852
G1 X89.665 Y100.971 E7.48884
G1 X89.815 Y101.556 E7.51915
G1 X89.906 Y102.154 E7.54947
G1 X89.929 Y103.055 E7.59474
G1 X89.87 Y103.66 E7.62524
G1 X89.751 Y104.253 E7.65556
G1 X89.574 Y104.83 E7.68588
G1 X89.34 Y105.387 E7.7162
G1 X89.052 Y105.918 E7.74652
G1 X88.712 Y106.418 E7.77684
G1 X88.325 Y106.881 E7.80715
G1 X87.893 Y107.303 E7.83747
G1 X87.421 Y107.681 E7.86779
G1 X86.914 Y108.009 E7.89811
G1 X86.377 Y108.286 E7.92843
G1 X85.815 Y108.507 E7.95875
G1 X85.234 Y108.672 E7.98906
G1 X84.639 Y108.777 E8.01938
G1 X84.096 Y108.819 E8.04668
G1 X83.846 Y109.175 F7800
G1 E6.04668 F2400
G92 E0
G1 X144.447 Y115.217 F7800
G1 E2 F2400
;TYPE:Perimeter
G1 F1800
G1 X144.198 Y115.367 E2.0146
G1 X143.914 Y115.415 E2.02905
G1 X109.139 Y115.415 E3.77427
G1 X108.802 Y115.347 E3.79156
G1 X108.536 Y115.169 E3.80757
G1 X108.35 Y114.9 E3.82399
G1 X108.277 Y114.553 E3.8418
G1 X108.277 Y90.978 E5.02494
G1 X108.35 Y90.631 E5.04275
G1 X108.536 Y90.362 E5.05917
G1 X108.802 Y90.185 E5.07518
G1 X109.139 Y90.116 E5.09247
G1 X143.914 Y90.116 E6.83769
G1 X144.264 Y90.19 E6.85561
G1 X144.504 Y90.348 E6.87004
G1 X144.699 Y90.621 E6.88687
G1 X144.777 Y90.978 E6.90521
G1 X144.777 Y114.553 E8.08835
G1 X144.699 Y114.91 E8.10669
G1 X144.499 Y115.186 E8.12379
G1 X144.24 Y114.932 F7800
G1 F1800
G1 X144.16 Y115.008 E8.12933
G1 X143.914 Y115.07 E8.14205
G1 X109.139 Y115.07 E9.88727
G1 X108.9 Y115.012 E9.89961
G1 X108.711 Y114.843 E9.91233
G1 X108.624 Y114.598 E9.92542
G1 X108.622 Y90.978 E11.1108
G1 X108.694 Y90.715 E11.12448
G1 X108.866 Y90.539 E11.13686
G1 X109.139 Y90.461 E11.15111
G1 X143.914 Y90.461 E12.89633
G1 X144.16 Y90.523 E12.90906
G1 X144.361 Y90.717 E12.92306
G1 X144.432 Y90.978 E12.93664
G1 X144.432 Y114.553 E14.11978
G1 X144.361 Y114.814 E14.13337
G1 X144.283 Y114.89 E14.13882
G1 X144.02 Y114.689 F7800
;TYPE:External perimeter
G1 F1800
G1 X143.914 Y114.726 E14.14445
G1 X109.139 Y114.726 E15.88967
G1 X109.003 Y114.659 E15.89728
G1 X108.967 Y114.553 E15.9029
G1 X108.967 Y90.978 E17.08603
G1 X109.028 Y90.846 E17.09331
G1 X109.139 Y90.806 E17.09927
G1 X143.914 Y90.806 E18.84449
G1 X144.043 Y90.864 E18.85159
G1 X144.087 Y90.978 E18.85773
G1 X144.087 Y114.553 E20.04087
G1 X144.047 Y114.635 E20.04545
G1 X144.045 Y114.799 F7800
G1 E18.04545 F2400
G92 E0
G1 X156.74 Y72.204 F7800
G1 E2 F2400
;TYPE:Solid infill
;WIDTH:0.420817
G1 F1800
G1 X157.283 Y72.748 E2.03868
G1 X157.283 Y73.237 E2.06328
G1 X156.406 Y72.359 E2.1257
G1 X155.917 Y72.359 E2.15029
G1 X157.283 Y73.725 E2.2475
G1 X157.283 Y74.214 E2.27209
G1 X155.428 Y72.359 E2.40408
G1 X154.939 Y72.359 E2.42867
G1 X157.283 Y74.703 E2.59544
G1 X157.283 Y75.192 E2.62003
G1 X154.45 Y72.359 E2.82158
G1 X153.961 Y72.359 E2.84617
G1 X157.283 Y75.681 E3.0825
G1 X157.283 Y76.17 E3.1071
G1 X153.472 Y72.359 E3.37821
G1 X152.984 Y72.359 E3.4028
G1 X157.283 Y76.659 E3.70869
G1 X157.283 Y77.148 E3.73329
G1 X152.495 Y72.359 E4.07396
G1 X152.006 Y72.359 E4.09855
G1 X157.283 Y77.637 E4.47401
G1 X157.283 Y78.126 E4.4986
G1 X151.517 Y72.359 E4.90884
G1 X151.028 Y72.359 E4.93343
G1 X157.283 Y78.614 E5.37845
G1 X157.283 Y79.103 E5.40304
G1 X150.539 Y72.359 E5.88284
G1 X150.05 Y72.359 E5.90743
G1 X157.283 Y79.592 E6.42201
G1 X157.283 Y80.081 E6.44661
G1 X149.561 Y72.359 E6.99597
G1 X149.072 Y72.359 E7.02056
G1 X157.283 Y80.57 E7.6047
G1 X157.283 Y81.059 E7.6293
G1 X148.583 Y72.359 E8.24822
G1 X148.095 Y72.359 E8.27282
G1 X157.283 Y81.548 E8.92652
G1 X157.283 Y82.037 E8.95111
G1 X147.606 Y72.359 E9.6396
G1 X147.117 Y72.359 E9.66419
G1 X157.283 Y82.526 E10.38746
G1 X157.283 Y83.015 E10.41206
G1 X146.628 Y72.359 E11.1701
G1 X146.139 Y72.359 E11.1947
G1 X157.283 Y83.503 E11.98753
G1 X157.283 Y83.992 E12.01212
G1 X145.65 Y72.359 E12.83973
G1 X145.161 Y72.359 E12.86433
G1 X157.283 Y84.481 E13.72672
G1 X157.283 Y84.97 E13.75131
G1 X144.672 Y72.359 E14.64849
G1 X144.183 Y72.359 E14.67308
G1 X157.283 Y85.459 E15.60504
G1 X157.283 Y85.948 E15.62963
G1 X143.694 Y72.359 E16.59637
G1 X143.206 Y72.359 E16.62096
G1 X157.283 Y86.437 E17.62248
G1 X157.283 Y86.926 E17.64707
G1 X142.717 Y72.359 E18.68337
G1 X142.228 Y72.359 E18.70797
G1 X157.283 Y87.415 E19.77905
G1 X157.283 Y87.904 E19.80364
G1 X141.739 Y72.359 E20.9095
G1 X141.25 Y72.359 E20.9341
G1 X157.283 Y88.392 E22.07474
G1 X157.283 Y88.881 E22.09933
G1 X140.761 Y72.359 E23.27476
G1 X140.272 Y72.359 E23.29935
G1 X157.283 Y89.37 E24.50956
G1 X157.283 Y89.859 E24.53415
G1 X139.783 Y72.359 E25.77914
G1 X139.294 Y72.359 E25.80373
G1 X157.283 Y90.348 E27.0835
G1 X157.283 Y90.837 E27.10809
G1 X138.805 Y72.359 E28.42264
G1 X138.316 Y72.359 E28.44724
G1 X157.283 Y91.326 E29.79657
G1 X157.283 Y91.815 E29.82116
G1 X137.828 Y72.359 E31.20527
G1 X137.339 Y72.359 E31.22987
G1 X157.283 Y92.304 E32.64876
G1 X157.283 Y92.793 E32.67336
G1 X136.85 Y72.359 E34.12703
G1 X136.361 Y72.359 E34.15163
G1 X157.283 Y93.281 E35.64008
G1 X157.283 Y93.77 E35.66468
G1 X135.872 Y72.359 E37.18791
G1 X135.383 Y72.359 E37.21251
G1 X157.283 Y94.259 E38.77053
G1 X157.283 Y94.748 E38.79512
G1 X134.894 Y72.359 E40.38792
G1 X134.405 Y72.359 E40.41251
G1 X157.283 Y95.237 E42.04009
G1 X157.283 Y95.726 E42.06469
G1 X133.916 Y72.359 E43.72705
G1 X133.427 Y72.359 E43.75165
G1 X157.283 Y96.215 E45.44879
G1 X157.283 Y96.704 E45.47338
G1 X132.939 Y72.359 E47.20531
G1 X132.45 Y72.359 E47.2299
G1 X157.283 Y97.193 E48.99661
G1 X157.283 Y97.682 E49.0212
G1 X131.961 Y72.359 E50.82269
G1 X131.472 Y72.359 E50.84728
G1 X157.283 Y98.171 E52.68355
G1 X157.283 Y98.659 E52.70815
G1 X130.983 Y72.359 E54.5792
G1 X130.494 Y72.359 E54.60379
G1 X157.283 Y99.148 E56.50962
G1 X157.283 Y99.637 E56.53422
G1 X130.005 Y72.359 E58.47483
G1 X129.516 Y72.359 E58.49942
G1 X157.283 Y100.126 E60.47482
G1 X157.283 Y100.615 E60.49941
G1 X129.027 Y72.359 E62.50959
G1 X128.538 Y72.359 E62.53418
G1 X157.283 Y101.104 E64.57914
G1 X157.283 Y101.593 E64.60373
G1 X128.05 Y72.359 E66.68347
G1 X127.561 Y72.359 E66.70807
G1 X157.283 Y102.082 E68.82259
G1 X157.283 Y102.571 E68.84718
G1 X127.072 Y72.359 E70.99648
G1 X126.583 Y72.359 E71.02107
G1 X144.104 Y89.881 E72.26758
G1 X144.193 Y89.892 E72.27207
G1 X144.369 Y89.953 E72.28143
G1 X144.528 Y90.04 E72.29056
G1 X144.752 Y90.233 E72.30545
G1 X144.884 Y90.414 E72.3167
G1 X145.009 Y90.736 E72.33408
G1 X145.016 Y90.792 E72.33693
G1 X157.283 Y103.06 E73.20968
G1 X157.283 Y103.548 E73.23427
G1 X145.035 Y91.3 E74.10562
G1 X145.035 Y91.789 E74.13021
G1 X157.283 Y104.037 E75.00156
G1 X157.283 Y104.526 E75.02615
G1 X145.035 Y92.278 E75.8975
G1 X145.035 Y92.767 E75.92209
G1 X157.283 Y105.015 E76.79344
G1 X157.283 Y105.504 E76.81803
G1 X145.035 Y93.256 E77.68938
G1 X145.035 Y93.745 E77.71397
G1 X157.283 Y105.993 E78.58532
G1 X157.283 Y106.482 E78.60991
G1 X145.035 Y94.234 E79.48126
G1 X145.035 Y94.723 E79.50586
G1 X157.283 Y106.971 E80.3772
G1 X157.283 Y107.46 E80.4018
G1 X145.035 Y95.212 E81.27314
G1 X145.035 Y95.701 E81.29774
G1 X157.283 Y107.949 E82.16908
G1 X157.283 Y108.437 E82.19368
G1 X145.035 Y96.189 E83.06502
G1 X145.035 Y96.678 E83.08962
G1 X157.283 Y108.926 E83.96097
G1 X157.283 Y109.415 E83.98556
G1 X145.035 Y97.167 E84.85691
G1 X145.035 Y97.656 E84.8815
G1 X157.283 Y109.904 E85.75285
G1 X157.283 Y110.393 E85.77744
G1 X145.035 Y98.145 E86.64879
G1 X145.035 Y98.634 E86.67338
G1 X157.283 Y110.882 E87.54473
G1 X157.283 Y111.371 E87.56932
G1 X145.035 Y99.123 E88.44067
G1 X145.035 Y99.612 E88.46526
G1 X157.283 Y111.86 E89.33661
G1 X157.283 Y112.349 E89.3612
G1 X145.035 Y100.101 E90.23255
G1 X145.035 Y100.59 E90.25715
G1 X157.283 Y112.838 E91.12849
G1 X157.283 Y113.326 E91.15309
G1 X145.035 Y101.078 E92.02443
G1 X145.035 Y101.567 E92.04903
G1 X157.283 Y113.815 E92.92037
G1 X157.283 Y114.304 E92.94497
G1 X145.035 Y102.056 E93.81631
G1 X145.035 Y102.545 E93.84091
G1 X157.283 Y114.793 E94.71226
G1 X157.283 Y115.282 E94.73685
G1 X145.035 Y103.034 E95.6082
G1 X145.035 Y103.523 E95.63279
G1 X157.283 Y115.771 E96.50414
G1 X157.283 Y116.26 E96.52873
G1 X145.035 Y104.012 E97.40008
G1 X145.035 Y104.501 E97.42467
G1 X157.283 Y116.749 E98.29602
G1 X157.283 Y117.238 E98.32061
G1 X145.035 Y104.99 E99.19196
G1 X145.035 Y105.479 E99.21655
G1 X157.283 Y117.727 E100.0879
G1 X157.283 Y118.216 E100.11249
G1 X145.035 Y105.967 E100.98384
G1 X145.035 Y106.456 E101.00843
G1 X157.283 Y118.704 E101.87978
G1 X157.283 Y119.193 E101.90438
G1 X145.035 Y106.945 E102.77572
G1 X145.035 Y107.434 E102.80032
G1 X157.283 Y119.682 E103.67166
G1 X157.283 Y120.171 E103.69626
G1 X145.035 Y107.923 E104.5676
G1 X145.035 Y108.412 E104.5922
G1 X157.283 Y120.66 E105.46354
G1 X157.283 Y121.149 E105.48814
G1 X145.035 Y108.901 E106.35949
G1 X145.035 Y109.39 E106.38408
G1 X157.283 Y121.638 E107.25543
G1 X157.283 Y122.127 E107.28002
G1 X145.035 Y109.879 E108.15137
G1 X145.035 Y110.368 E108.17596
G1 X157.283 Y122.616 E109.04731
G1 X157.283 Y123.105 E109.0719
G1 X145.035 Y110.856 E109.94325
G1 X145.035 Y111.345 E109.96784
G1 X157.283 Y123.593 E110.83919
G1 X157.283 Y124.082 E110.86378
G1 X145.035 Y111.834 E111.73513
G1 X145.035 Y112.323 E111.75972
G1 X157.283 Y124.571 E112.63107
G1 X157.283 Y125.06 E112.65566
G1 X145.035 Y112.812 E113.52701
G1 X145.035 Y113.301 E113.55161
