; generated by PrusaSlicer 2.5.0+linux-x64-GTK3 on 2023-05-26 at 12:12:19 UTC

; 

; external perimeters extrusion width = 0.45mm
; perimeters extrusion width = 0.45mm
; infill extrusion width = 0.45mm
; solid infill extrusion width = 0.45mm
; top infill extrusion width = 0.40mm
; support material extrusion width = 0.35mm
; first layer extrusion width = 0.42mm

M107
M190 S60 ; set bed temperature and wait for it to be reached
M104 S210 ; set temperature
;TYPE:Custom
G28 ; home all axes
G1 Z5 F5000 ; lift nozzle
M109 S210 ; set temperature and wait for it to be reached
G21 ; set units to millimeters
G90 ; use absolute coordinates
M82 ; use absolute distances for extrusion
G92 E0
; Filament gcode
M107
;LAYER_CHANGE
;Z:0.35
;HEIGHT:0.35
G1 Z.35 F7800
G1 E-2 F2400
G92 E0
G1 X52.487 Y12.226 F7800
G1 E2 F2400
;TYPE:Skirt/Brim
;WIDTH:0.42
G1 F1800
G1 X53.628 Y10.294 E2.11262
G1 X55.37 Y8.88 E2.22524
G1 X58.435 Y8.09 E2.38408
G1 X161.565 Y8.09 E7.55975
G1 X163.774 Y8.487 E7.67237
G1 X165.706 Y9.628 E7.78499
G1 X167.121 Y11.37 E7.89761
G1 X167.91 Y14.435 E8.05645
G1 X167.91 Y77.565 E11.22468
G1 X167.513 Y79.774 E11.3373
G1 X166.372 Y81.706 E11.44992
G1 X164.63 Y83.12 E11.56254
G1 X161.565 Y83.91 E11.72138
G1 X58.435 Y83.91 E16.89705
G1 X56.226 Y83.513 E17.00967
G1 X54.294 Y82.372 E17.12229
G1 X52.88 Y80.63 E17.23491
G1 X52.09 Y77.565 E17.39374
G1 X52.09 Y14.435 E20.56197
G1 X52.476 Y12.285 E20.67158
G1 E18.67158 F2400
G92 E0
G1 X59.335 Y15.335 F7800
G1 E2 F2400
;TYPE:Perimeter
;WIDTH:0.42
G1 F1800
G1 X160.665 Y15.335 E7.08535
G1 X160.665 Y76.665 E10.16327
G1 X59.335 Y76.665 E15.24862
G1 X59.335 Y15.395 E18.32352
G1 X58.99 Y14.99 F7800
G1 F1800
G1 X161.01 Y14.99 E23.44349
G1 X161.01 Y77.01 E26.55603
G1 X58.99 Y77.01 E31.676
G1 X58.99 Y15.05 E34.78552
G1 X58.645 Y14.645 F7800
;TYPE:External perimeter
G1 F1800
G1 X161.355 Y14.645 E39.9401
G1 X161.355 Y77.355 E43.08725
G1 X58.645 Y77.355 E48.24184
G1 X58.645 Y14.705 E51.38598
G1 X59.038 Y14.718 F7800
G1 E49.38598 F2400
G92 E0
G1 X108.568 Y57.937 F7800
G1 E2 F2400
;TYPE:Perimeter
G1 F1800
G1 X108.527 Y58.133 E2.01006
G1 X108.341 Y58.403 E2.0265
G1 X108.076 Y58.581 E2.04254
G1 X107.738 Y58.65 E2.05986
G1 X72.962 Y58.65 E3.80508
G1 X72.613 Y58.576 E3.823
G1 X72.373 Y58.417 E3.83743
G1 X72.178 Y58.145 E3.85426
G1 X72.1 Y57.788 E3.8726
G1 X72.1 Y34.212 E5.05574
G1 X72.178 Y33.855 E5.07408
G1 X72.373 Y33.583 E5.09091
G1 X72.679 Y33.398 E5.10881
G1 X72.962 Y33.35 E5.12326
G1 X107.738 Y33.35 E6.86848
G1 X108.076 Y33.419 E6.8858
G1 X108.341 Y33.597 E6.90184
G1 X108.527 Y33.867 E6.91828
G1 X108.6 Y34.212 E6.93601
G1 X108.6 Y57.788 E8.11915
G1 X108.581 Y57.879 E8.12381
G1 X108.232 Y57.874 F7800
G1 F1800
G1 X108.183 Y58.05 E8.133
G1 X108.011 Y58.227 E8.14539
G1 X107.738 Y58.305 E8.15967
G1 X72.962 Y58.305 E9.90489
G1 X72.717 Y58.243 E9.91761
G1 X72.516 Y58.049 E9.93162
G1 X72.445 Y57.788 E9.9452
G1 X72.445 Y34.212 E11.12834
G1 X72.516 Y33.951 E11.14193
G1 X72.717 Y33.757 E11.15593
G1 X72.962 Y33.695 E11.16866
G1 X107.738 Y33.695 E12.91388
G1 X107.977 Y33.754 E12.92624
G1 X108.166 Y33.923 E12.93898
G1 X108.253 Y34.169 E12.95207
G1 X108.249 Y57.816 E14.13881
G1 X107.91 Y57.789 F7800
;TYPE:External perimeter
G1 F1800
G1 X107.839 Y57.927 E14.14656
G1 X107.738 Y57.96 E14.15194
G1 X72.962 Y57.96 E15.89716
G1 X72.833 Y57.902 E15.90426
G1 X72.79 Y57.788 E15.9104
G1 X72.79 Y34.212 E17.09354
G1 X72.856 Y34.077 E17.10113
G1 X72.962 Y34.04 E17.10676
G1 X107.738 Y34.04 E18.85198
G1 X107.874 Y34.107 E18.8596
G1 X107.91 Y34.212 E18.8652
G1 X107.91 Y57.729 E20.04542
G1 X108.013 Y57.904 F7800
G1 E18.04542 F2400
G92 E0
G1 X126.382 Y44.983 F7800
G1 E2 F2400
;TYPE:Perimeter
G1 F1800
G1 X126.498 Y44.389 E2.0304
G1 X126.691 Y43.749 E2.06392
G1 X126.946 Y43.132 E2.09743
G1 X127.262 Y42.544 E2.13094
G1 X127.634 Y41.99 E2.16446
G1 X128.06 Y41.475 E2.19798
G1 X128.535 Y41.006 E2.23149
G1 X129.055 Y40.586 E2.26501
G1 X129.613 Y40.22 E2.29852
G1 X130.206 Y39.912 E2.33203
G1 X130.826 Y39.664 E2.36555
G1 X131.468 Y39.479 E2.39907
G1 X132.124 Y39.359 E2.43259
G1 X132.79 Y39.304 E2.4661
G1 X133.458 Y39.317 E2.49961
G1 X134.121 Y39.396 E2.53313
G1 X134.773 Y39.54 E2.56665
G1 X135.407 Y39.749 E2.60016
G1 X136.018 Y40.019 E2.63368
G1 X136.598 Y40.349 E2.66719
G1 X137.143 Y40.736 E2.70071
G1 X137.647 Y41.175 E2.73422
G1 X138.104 Y41.661 E2.76774
G1 X138.511 Y42.191 E2.80126
G1 X138.862 Y42.759 E2.83477
G1 X139.156 Y43.358 E2.86829
G1 X139.388 Y43.984 E2.9018
G1 X139.557 Y44.631 E2.93532
G1 X139.687 Y45.621 E2.98544
G1 X139.693 Y46.292 E3.0191
G1 X139.63 Y46.956 E3.05259
G1 X139.502 Y47.611 E3.08609
G1 X139.309 Y48.251 E3.11962
G1 X139.054 Y48.868 E3.15313
G1 X138.738 Y49.456 E3.18664
G1 X138.366 Y50.01 E3.22016
G1 X137.94 Y50.525 E3.25368
G1 X137.465 Y50.994 E3.28719
G1 X136.945 Y51.414 E3.32071
G1 X136.387 Y51.78 E3.35422
G1 X135.794 Y52.088 E3.38773
G1 X135.174 Y52.336 E3.42125
G1 X134.532 Y52.521 E3.45477
G1 X133.876 Y52.641 E3.48828
G1 X133.21 Y52.696 E3.5218
G1 X132.542 Y52.683 E3.55531
G1 X131.879 Y52.604 E3.58883
G1 X131.227 Y52.46 E3.62235
G1 X130.593 Y52.251 E3.65586
G1 X129.982 Y51.981 E3.68937
G1 X129.402 Y51.651 E3.72289
G1 X128.857 Y51.264 E3.75641
G1 X128.353 Y50.825 E3.78992
G1 X127.896 Y50.339 E3.82343
G1 X127.489 Y49.809 E3.85695
G1 X127.138 Y49.241 E3.89047
G1 X126.844 Y48.642 E3.92398
G1 X126.612 Y48.016 E3.9575
G1 X126.443 Y47.369 E3.99102
G1 X126.313 Y46.379 E4.04114
G1 X126.307 Y45.708 E4.0748
G1 X126.37 Y45.042 E4.10838
G1 X126.719 Y45.047 F7800
G1 F1800
G1 X126.836 Y44.457 E4.13858
G1 X127.02 Y43.851 E4.17038
G1 X127.264 Y43.266 E4.20216
G1 X127.564 Y42.709 E4.23395
G1 X127.919 Y42.184 E4.26575
G1 X128.324 Y41.697 E4.29754
G1 X128.776 Y41.253 E4.32933
G1 X129.27 Y40.856 E4.36112
G1 X129.801 Y40.51 E4.39291
G1 X130.363 Y40.219 E4.4247
G1 X130.952 Y39.985 E4.4565
G1 X131.561 Y39.811 E4.48829
G1 X132.184 Y39.698 E4.52008
G1 X132.816 Y39.648 E4.55187
G1 X133.449 Y39.662 E4.58366
G1 X134.078 Y39.738 E4.61546
G1 X134.696 Y39.876 E4.64725
G1 X135.297 Y40.075 E4.67904
G1 X135.876 Y40.334 E4.71083
G1 X136.426 Y40.648 E4.74262
G1 X136.942 Y41.016 E4.77442
G1 X137.418 Y41.433 E4.8062
G1 X137.851 Y41.896 E4.83799
G1 X138.236 Y42.399 E4.86979
G1 X138.568 Y42.938 E4.90158
G1 X138.845 Y43.508 E4.93337
G1 X139.064 Y44.102 E4.96516
G1 X139.223 Y44.716 E4.99696
G1 X139.344 Y45.663 E5.04489
G1 X139.348 Y46.291 E5.07642
G1 X139.287 Y46.922 E5.10819
G1 X139.164 Y47.543 E5.13998
G1 X138.98 Y48.149 E5.17178
G1 X138.736 Y48.734 E5.20357
G1 X138.436 Y49.291 E5.23536
G1 X138.081 Y49.816 E5.26715
G1 X137.676 Y50.303 E5.29894
G1 X137.224 Y50.747 E5.33073
G1 X136.73 Y51.144 E5.36252
G1 X136.2 Y51.49 E5.39431
G1 X135.637 Y51.781 E5.4261
G1 X135.048 Y52.015 E5.4579
G1 X134.439 Y52.189 E5.48969
G1 X133.816 Y52.302 E5.52148
G1 X133.184 Y52.352 E5.55327
G1 X132.551 Y52.338 E5.58506
G1 X131.922 Y52.262 E5.61686
G1 X131.304 Y52.124 E5.64865
G1 X130.703 Y51.925 E5.68044
G1 X130.124 Y51.666 E5.71223
G1 X129.574 Y51.352 E5.74402
G1 X129.058 Y50.984 E5.77582
G1 X128.582 Y50.567 E5.80761
G1 X128.149 Y50.104 E5.8394
G1 X127.764 Y49.601 E5.87119
G1 X127.432 Y49.062 E5.90298
G1 X127.155 Y48.492 E5.93477
G1 X126.936 Y47.898 E5.96656
G1 X126.777 Y47.284 E5.99836
G1 X126.656 Y46.337 E6.04629
G1 X126.652 Y45.709 E6.07782
G1 X126.71 Y45.107 E6.10818
G1 X127.056 Y45.113 F7800
;TYPE:External perimeter
G1 F1800
G1 X127.174 Y44.525 E6.13825
G1 X127.35 Y43.953 E6.16832
G1 X127.582 Y43.4 E6.19839
G1 X127.867 Y42.874 E6.22846
G1 X128.204 Y42.378 E6.25853
G1 X128.589 Y41.919 E6.28859
G1 X129.017 Y41.5 E6.31866
G1 X129.485 Y41.125 E6.34873
G1 X129.988 Y40.8 E6.3788
G1 X130.52 Y40.526 E6.40886
G1 X131.078 Y40.306 E6.43893
G1 X131.654 Y40.143 E6.469
G1 X132.244 Y40.038 E6.49907
G1 X132.842 Y39.992 E6.52914
G1 X133.441 Y40.006 E6.5592
G1 X134.035 Y40.08 E6.58927
G1 X134.619 Y40.212 E6.61934
G1 X135.188 Y40.402 E6.64941
G1 X135.734 Y40.648 E6.67948
G1 X136.253 Y40.947 E6.70954
G1 X136.74 Y41.296 E6.73961
G1 X137.19 Y41.692 E6.76968
G1 X137.598 Y42.13 E6.79975
G1 X137.961 Y42.607 E6.82982
G1 X138.274 Y43.118 E6.85988
G1 X138.535 Y43.658 E6.88995
G1 X138.74 Y44.22 E6.92002
G1 X138.889 Y44.801 E6.95009
G1 X139.002 Y45.705 E6.99584
G1 X139.003 Y46.291 E7.02524
G1 X138.944 Y46.887 E7.0553
G1 X138.826 Y47.475 E7.08536
G1 X138.65 Y48.047 E7.11543
G1 X138.418 Y48.6 E7.1455
G1 X138.133 Y49.126 E7.17557
G1 X137.796 Y49.622 E7.20564
G1 X137.411 Y50.081 E7.23571
G1 X136.983 Y50.5 E7.26577
G1 X136.515 Y50.875 E7.29584
G1 X136.012 Y51.2 E7.32591
G1 X135.48 Y51.474 E7.35597
G1 X134.922 Y51.694 E7.38605
G1 X134.346 Y51.857 E7.41611
G1 X133.756 Y51.962 E7.44618
G1 X133.158 Y52.008 E7.47625
G1 X132.559 Y51.994 E7.50631
G1 X131.965 Y51.92 E7.53639
G1 X131.381 Y51.788 E7.56645
G1 X130.812 Y51.598 E7.59652
G1 X130.266 Y51.352 E7.62659
G1 X129.747 Y51.053 E7.65666
G1 X129.26 Y50.704 E7.68672
G1 X128.81 Y50.308 E7.71679
G1 X128.402 Y49.87 E7.74686
G1 X128.039 Y49.393 E7.77693
G1 X127.726 Y48.882 E7.807
G1 X127.465 Y48.342 E7.83707
G1 X127.26 Y47.78 E7.86713
G1 X127.111 Y47.199 E7.8972
G1 X126.998 Y46.295 E7.94295
G1 X126.997 Y45.709 E7.97235
G1 X127.05 Y45.173 E7.99939
G1 X126.743 Y44.864 F7800
G1 E5.99939 F2400
G92 E0
G1 X159.863 Y15.438 F7800
G1 E2 F2400
;TYPE:Solid infill
;WIDTH:0.420817
G1 F1800
G1 X160.407 Y15.982 E2.03868
G1 X160.407 Y16.471 E2.06328
G1 X159.529 Y15.593 E2.1257
G1 X159.04 Y15.593 E2.15029
G1 X160.407 Y16.96 E2.2475
G1 X160.407 Y17.449 E2.27209
G1 X158.551 Y15.593 E2.40408
G1 X158.062 Y15.593 E2.42867
G1 X160.407 Y17.938 E2.59544
G1 X160.407 Y18.427 E2.62003
G1 X157.574 Y15.593 E2.82158
G1 X157.085 Y15.593 E2.84617
G1 X160.407 Y18.915 E3.0825
G1 X160.407 Y19.404 E3.1071
G1 X156.596 Y15.593 E3.37821
G1 X156.107 Y15.593 E3.4028
G1 X160.407 Y19.893 E3.70869
G1 X160.407 Y20.382 E3.73329
G1 X155.618 Y15.593 E4.07396
G1 X155.129 Y15.593 E4.09855
G1 X160.407 Y20.871 E4.47401
G1 X160.407 Y21.36 E4.4986
G1 X154.64 Y15.593 E4.90884
G1 X154.151 Y15.593 E4.93343
G1 X160.407 Y21.849 E5.37845
G1 X160.407 Y22.338 E5.40304
G1 X153.662 Y15.593 E5.88284
G1 X153.173 Y15.593 E5.90743
G1 X160.407 Y22.827 E6.42201
G1 X160.407 Y23.316 E6.44661
G1 X152.685 Y15.593 E6.99597
G1 X152.196 Y15.593 E7.02056
G1 X160.407 Y23.804 E7.6047
G1 X160.407 Y24.293 E7.6293
G1 X151.707 Y15.593 E8.24822
G1 X151.218 Y15.593 E8.27282
G1 X160.407 Y24.782 E8.92652
G1 X160.407 Y25.271 E8.95111
G1 X150.729 Y15.593 E9.6396
G1 X150.24 Y15.593 E9.66419
G1 X160.407 Y25.76 E10.38746
G1 X160.407 Y26.249 E10.41206
G1 X149.751 Y15.593 E11.1701
G1 X149.262 Y15.593 E11.1947
G1 X160.407 Y26.738 E11.98753
G1 X160.407 Y27.227 E12.01212
G1 X148.773 Y15.593 E12.83973
G1 X148.284 Y15.593 E12.86433
G1 X160.407 Y27.716 E13.72672
G1 X160.407 Y28.205 E13.75131
G1 X147.796 Y15.593 E14.64849
G1 X147.307 Y15.593 E14.67308
G1 X160.407 Y28.693 E15.60504
G1 X160.407 Y29.182 E15.62963
G1 X146.818 Y15.593 E16.59637
G1 X146.329 Y15.593 E16.62096
G1 X160.407 Y29.671 E17.62248
G1 X160.407 Y30.16 E17.64707
G1 X145.84 Y15.593 E18.68337
G1 X145.351 Y15.593 E18.70797
G1 X160.407 Y30.649 E19.77905
G1 X160.407 Y31.138 E19.80364
G1 X144.862 Y15.593 E20.9095
G1 X144.373 Y15.593 E20.9341
G1 X160.407 Y31.627 E22.07474
G1 X160.407 Y32.116 E22.09933
G1 X143.884 Y15.593 E23.27476
G1 X143.395 Y15.593 E23.29935
G1 X160.407 Y32.605 E24.50956
G1 X160.407 Y33.094 E24.53415
G1 X142.906 Y15.593 E25.77914
G1 X142.418 Y15.593 E25.80373
G1 X160.407 Y33.582 E27.0835
G1 X160.407 Y34.071 E27.10809
G1 X141.929 Y15.593 E28.42264
G1 X141.44 Y15.593 E28.44724
G1 X160.407 Y34.56 E29.79657
G1 X160.407 Y35.049 E29.82116
G1 X140.951 Y15.593 E31.20528
G1 X140.462 Y15.593 E31.22987
G1 X160.407 Y35.538 E32.64876
G1 X160.407 Y36.027 E32.67336
G1 X139.973 Y15.593 E34.12703
G1 X139.484 Y15.593 E34.15163
G1 X160.407 Y36.516 E35.64008
G1 X160.407 Y37.005 E35.66468
G1 X138.995 Y15.593 E37.18791
G1 X138.506 Y15.593 E37.21251
G1 X160.407 Y37.494 E38.77053
G1 X160.407 Y37.983 E38.79512
G1 X138.017 Y15.593 E40.38792
G1 X137.529 Y15.593 E40.41251
G1 X160.407 Y38.472 E42.04009
G1 X160.407 Y38.96 E42.06469
G1 X137.04 Y15.593 E43.72705
G1 X136.551 Y15.593 E43.75165
G1 X160.407 Y39.449 E45.44879
G1 X160.407 Y39.938 E45.47338
G1 X136.062 Y15.593 E47.20531
G1 X135.573 Y15.593 E47.2299
G1 X160.407 Y40.427 E48.99661
G1 X160.407 Y40.916 E49.0212
G1 X135.084 Y15.593 E50.82269
G1 X134.595 Y15.593 E50.84728
G1 X160.407 Y41.405 E52.68355
G1 X160.407 Y41.894 E52.70815
G1 X134.106 Y15.593 E54.5792
G1 X133.617 Y15.593 E54.60379
G1 X160.407 Y42.383 E56.50962
G1 X160.407 Y42.872 E56.53422
G1 X133.128 Y15.593 E58.47483
G1 X132.64 Y15.593 E58.49942
G1 X160.407 Y43.361 E60.47482
G1 X160.407 Y43.849 E60.49941
G1 X132.151 Y15.593 E62.50959
G1 X131.662 Y15.593 E62.53418
G1 X160.407 Y44.338 E64.57914
G1 X160.407 Y44.827 E64.60373
G1 X131.173 Y15.593 E66.68347
G1 X130.684 Y15.593 E66.70807
G1 X160.407 Y45.316 E68.82258
G1 X160.407 Y45.805 E68.84718
G1 X130.195 Y15.593 E70.99648
G1 X129.706 Y15.593 E71.02107
G1 X160.407 Y46.294 E73.20516
G1 X160.407 Y46.783 E73.22975
G1 X129.217 Y15.593 E75.44861
G1 X128.728 Y15.593 E75.47321
G1 X160.407 Y47.272 E77.72685
G1 X160.407 Y47.761 E77.75145
G1 X128.239 Y15.593 E80.03987
G1 X127.751 Y15.593 E80.06447
G1 X160.407 Y48.25 E82.38767
G1 X160.407 Y48.738 E82.41227
G1 X127.262 Y15.593 E84.77026
G1 X126.773 Y15.593 E84.79485
G1 X160.407 Y49.227 E87.18762
G1 X160.407 Y49.716 E87.21221
G1 X126.284 Y15.593 E89.63977
G1 X125.795 Y15.593 E89.66436
G1 X160.407 Y50.205 E92.12669
G1 X160.407 Y50.694 E92.15129
G1 X125.306 Y15.593 E94.6484
G1 X124.817 Y15.593 E94.67299
G1 X160.407 Y51.183 E97.20489
G1 X160.407 Y51.672 E97.22948
G1 X124.328 Y15.593 E99.79616
G1 X123.839 Y15.593 E99.82075
G1 X160.407 Y52.161 E102.42221
G1 X160.407 Y52.65 E102.44681
G1 X123.35 Y15.593 E105.08304
G1 X122.862 Y15.593 E105.10764
G1 X160.407 Y53.139 E107.77866
G1 X160.407 Y53.627 E107.80325
G1 X122.373 Y15.593 E110.50905
G1 X121.884 Y15.593 E110.53365
G1 X160.407 Y54.116 E113.27423
G1 X160.407 Y54.605 E113.29883
G1 X121.395 Y15.593 E116.07419
G1 X120.906 Y15.593 E116.09878
G1 X160.407 Y55.094 E118.90893
G1 X160.407 Y55.583 E118.93352
G1 X120.417 Y15.593 E121.77845
G1 X119.928 Y15.593 E121.80304
G1 X160.407 Y56.072 E124.68275
G1 X160.407 Y56.561 E124.70735
G1 X119.439 Y15.593 E127.62184
G1 X118.95 Y15.593 E127.64643
G1 X160.407 Y57.05 E130.5957
G1 X160.407 Y57.539 E130.6203
G1 X118.461 Y15.593 E133.60435
G1 X117.972 Y15.593 E133.62894
G1 X160.407 Y58.028 E136.64777
G1 X160.407 Y58.517 E136.67237
G1 X117.484 Y15.593 E139.72598
G1 X116.995 Y15.593 E139.75058
G1 X160.407 Y59.005 E142.83897
G1 X160.407 Y59.494 E142.86357
G1 X116.506 Y15.593 E145.98675
G1 X116.017 Y15.593 E146.01134
G1 X160.407 Y59.983 E149.1693
G1 X160.407 Y60.472 E149.19389
G1 X115.528 Y15.593 E152.38663
G1 X115.039 Y15.593 E152.41123
G1 X160.407 Y60.961 E155.63875
G1 X160.407 Y61.45 E155.66334
G1 X114.55 Y15.593 E158.92564
G1 X114.061 Y15.593 E158.95024
G1 X160.407 Y61.939 E162.24732
G1 X160.407 Y62.428 E162.27192
G1 X113.572 Y15.593 E165.60378
G1 X113.083 Y15.593 E165.62837
G1 X160.407 Y62.917 E168.99502
G1 X160.407 Y63.406 E169.01962
G1 X112.595 Y15.593 E172.42104
G1 X112.106 Y15.593 E172.44564
G1 X136.518 Y40.006 E174.1824
G1 X136.776 Y40.155 E174.19735
G1 X137.351 Y40.57 E174.23304
G1 X137.858 Y41.018 E174.26709
G1 X138.33 Y41.527 E174.30199
G1 X138.749 Y42.08 E174.3369
G1 X138.997 Y42.484 E174.36075
G1 X160.407 Y63.894 E175.8839
G1 X160.407 Y64.383 E175.90849
G1 X139.465 Y43.442 E177.39829
G1 X139.633 Y43.9 E177.42281
G1 X139.704 Y44.169 E177.43684
G1 X160.407 Y64.872 E178.90968
G1 X160.407 Y65.361 E178.93427
G1 X139.837 Y44.791 E180.39766
G1 X139.906 Y45.349 E180.42594
G1 X160.407 Y65.85 E181.88442
G1 X160.407 Y66.339 E181.90901
G1 X139.95 Y45.883 E183.3643
G1 X139.946 Y46.368 E183.38869
G1 X160.407 Y66.828 E184.84427
G1 X160.407 Y67.317 E184.86887
G1 X139.903 Y46.813 E186.32754
G1 X139.84 Y47.239 E186.3492
G1 X160.407 Y67.806 E187.81236
G1 X160.407 Y68.295 E187.83695
G1 X139.755 Y47.643 E189.30612
G1 X139.648 Y48.025 E189.32606
G1 X160.407 Y68.783 E190.80287
G1 X160.407 Y69.272 E190.82746
G1 X139.53 Y48.396 E192.31265
